X: 1425
T: Fantasy
C:Arthur Bowley, (1913-2006)
B: australian traditional tunes wiki
M:2/4
L:1/8
Q: 1/4=100
K:G
V:1 
|:"G"d/^c/d/e/ dB|B/^A/B/c/ BG|G/F/G/A/ GF/F/|"D7"FFF2|G/F/G/A/ GF/F/|FFF2|"G"E/^D/E/F/ E=D/D/|"D7"FFF2|
"G"d/^c/d/e/ dB|B/^A/B/c/ BG|G/F/G/A/ GF/F/|"D7"FGA2|"A7"A/^G/A/B/A2|"D"A/^G/A/B/ AA|"A7"A^A B^c|"D7"dzd2|1
"D7"d2c2|B2A2|"G"G>G GB|D3G|"D7"F>^E F=E|C3F|"G"E>^D E=D|B,3D|D2G2|
A2B2|"C"A>^G A=G|"C"E3G|"D7"F3E|DD EF|"G7"G4-|Gz^c2:|2
"D7"d2e2|f2c'2|"G"b>^a bg|d3g|"D7"f>^e f=e|c3g|"G"e>^d e=d|B3d|
d2g2|a2b2|"C"a>^g a=g|e3g|"D7"f3e|dd ef|"G"g4-|gz^c2:|3
"D7"d2c2|B2A2|"G"G>G GB|D3G|"D7"F>^E F=E|C3F|"G"E>^D E=D|B,3D|D2G2|
A2B2|"C"A>^G A=G|"C"E3G|"D7"F3E|D^D EF|"G7"G2"D7"D2|"G"GG/G/ GG|G4||
% abcbook-tune_id 6342d53aa90ae99fd796e073


% abcbook-boost 0
% abcbook-tablature 
% abcbook-transpose 
% abcbook-lastupdated 1665324364510
% abcbook-soundfonts 
% abcbook-repeats 1
% NFF Book 2016

